X: 5658
T: Bwced
R: slip jig
M: 9/8
K: Gmajor
c|Bcd dBG Bcd|efg dBG ABc|Bcd dBG Bcd|A3 AFD D2:|
c|BAB EFE EFE|BAB EFE D2 c|BAB EFE EFG|A3 AFD D2:|

